X:172
T:Setting Sun, The
T:Wee Johnny
R:jig
D:Skylark
D:Four Men and a Dog: Barking Mad
Z:id:hn-jig-172
M:6/8
K:D
AFd AFd|AFD E2F|GFG Eed|cBc dcB|AFd AFd|AFD E2F|GFG Eed|cBc d2B:|
Adf agf|efg B2d|cBc ABc|dAG FED|Adf agf|efg B2d|cBc ABc|dfe dcB:|

